X:1
T:Andrew Bordeen
M:6/8
L:1/8
K:Bb
 B,| D2 D D/2 D3/2 B, CCB,| B, z B, D2 C D/2 D3/2 E| F3- F z D F3/2 F/2 F|\
F-E D C3/2- D/2 C C3| G2 G
M:6/8
| F3/2 D/2 B, CDC| B,3- B, z||
